**kern	**kern
*staff2	*staff1
*clefF4	*clefG2
*k[f#c#]	*k[f#c#]
*M4/4	*M4/4
=-	=-
4r	4a
=1	=1
4d	4dd
4D	(8ddL
.	8eeJ
4r	4dd)
4D	4dd
=2	=2
.	(32ff#q
4AA	(8eeL)
.	8dd
4A	8ee
.	8ff#J
4r	4ee
4C#	8aaL
.	8ggJ)
=3	=3
(8DL	(4gg
8E	.
8F#	4ff#
8GJ	.
.	16eeq
.	16ff#q
4A)	4ee)
4AA	4aa
=4	=4
4BB	(4aa
4C#	4gg
.	16ff#q
.	16ggq
4D	2ff#)
8EL	.
8F#J	.
=5	=5
4G	(4ee
4F#	4dd
4G	8eeL
.	8gg
4A	8ff#
.	8eeJ
=6	=6
4d	2.dd)
4A	.
4D	.
*END	*END
=-	=-
4r	4a
=7	=7
4r	4.dd
4AA	.
.	8ee
4D	4ff#
4E	4gg
=8	=8
4.F#	4.aa
8G	8bb
4F#	4aa
4C#	4gg
=9	=9
(8DL	(4gg
8E	.
8F#	4ff#
8GJ	.
.	16eeq
.	16ff#q
8AL	2ee)
8AA	.
8BB	.
8C#J	.
=10	=10
4D)	4dd'
4C#	4ee
4D	4ff#'
4E	4gg
=11	=11
4F#	2aa
4C#	.
4D	(8bbL
.	8aa)
4DD	(8gg
.	8ff#J)
=12	=12
8r	(4ff#
8AA	.
8C#L	2ee)
8EJ	.
4A	.
*END	*END
*clefF4	*clefG2
*k[f#c#]	*k[f#c#]
*M4/4	*M4/4
=-	=-
4r	4a
=13	=13
4d	4dd
4D	(8ddL
.	8eeJ)
4r	4dd
4D	4dd
=14	=14
.	(32ff#q
4AA	(8eeL)
.	8dd
4A	8ee
.	8ff#J
4r	4ee
4C#	8aaL
.	8ggJ)
=15	=15
(8DL	(4gg
8E	.
8F#	4ff#
8GJ	.
.	16eeq
.	16ff#q
4A)	4ee)
4AA	4aa
=16	=16
4BB	(4aa
4C#	4gg
.	16ff#q
.	16ggq
4D	2ff#)
8EL	.
8F#J	.
=17	=17
4G	(4ee
4F#	4dd
4G	8eeL
.	8gg
4A	8ff#
.	8eeJ
=18	=18
4d	2.dd);
4A	.
4D;	.
*END	*END
*clefF4	*clefG2
*k[f#c#]	*k[f#c#]
*M4/4	*M4/4
=-	=-
4r	4a
=19	=19
.	(16eeq
4d	(8ddL)
.	8cc#J
4D	8ddL
.	8eeJ
4r	8ddL
.	8ee
4D	8ff#
.	8ddJ)
=20	=20
.	(16ff#q
4AA	(8eeL)
.	8ddJ
4A	8eeL
.	8ff#J
4r	8eeL')
.	(8gg#
4C#	8aa
.	8ggJ)
=21	=21
(8DL	(4gg
8E	.
8F#	4ff#
8GJ	.
.	16eeq
.	16ff#q
4A)	8eeL
.	8ff#
4AA	8gg
.	8aaJ)
=22	=22
8r	(4aa
(8AA	.
8BBL	4gg
8C#J)	.
.	16ff#q
.	16ggq
8r	2ff#)
(8D	.
8EL	.
8F#J	.
=23	=23
.	(16ff#q
4G)	(8eeL)
.	8ddJ
4F#	8eeL
.	8ff#J
4G	8eeL
.	8gg
4A	8ff#
.	8eeJ
=24	=24
8D'L	2.dd)
(8F#	.
8G	.
8AJ)	.
4D	.
*END	*END
*clefF4	*clefG2
*k[f#c#]	*k[f#c#]
*M4/4	*M4/4
=-	=-
4r	4a
=25	=25
4r	(8ddL
.	8a)
8r	8dd'
8AA	8eeJ'
4.D	(8ff#L
.	8a)
.	8ff#'
8E	8ggJ'
=26	=26
4.F#	(8aaL
.	8dd)
.	8aa'
8G	8bbJ'
4F#	(8aaL
.	8bb)
4E	(8gg
.	8aaJ)
=27	=27
8r	(4gg
(8D	.
8F#L	4ff#
8GJ	.
.	16eeq
.	16ff#q
8AL	4ee)
8AA	.
8C#	4r
8AAJ	.
=28	=28
[1D)	8f#L 8dd
.	8a 8cc#
.	8b 8dd
.	8cc#J 8ee
.	8ddL 8ff#
.	8cc# 8ee
.	8dd 8ff#
.	8eeJ 8gg
=29	=29
4D]	8ff#L 8aa
.	8dd 8ff#
4C#	8gg 8bb
.	8eeJ 8gg
2D	8ff#L 8aa'
.	(8ff# 8aa
.	8ee 8gg
.	8ddJ) 8ff#
=30	=30
8r	(4dd 4ff#
(8A	.
8G#L	2cc#) 2ee
8AJ)	.
4AA	.
*END	*END
*clefF4	*clefG2
*k[f#c#]	*k[f#c#]
*M4/4	*M4/4
=-	=-
4r	4a
=31	=31
.	(16eeq
4d	(8ddL)
.	8cc#J
4D	8ddL
.	8eeJ
4r	8ddL
.	8ee
4D	8ff#
.	8ddJ)
=32	=32
.	(16ff#q
4AA	(8eeL)
.	8ddJ
4A	8eeL
.	8ff#J
4r	8eeL')
.	(8gg#
4C#	8aa
.	8ggJ)
=33	=33
(8DL	(4gg
8E	.
8F#	4ff#
8GJ	.
.	16eeq
.	16ff#q
4A)	8eeL
.	8ff#
4AA	8gg
.	8aaJ)
=34	=34
8r	(4aa
(8AA	.
8BBL	4gg
8C#J)	.
.	16ff#q
.	16ggq
8r	2ff#)
(8D	.
8EL	.
8F#J	.
=35	=35
.	(16ff#q
4G)	(8eeL)
.	8ddJ
4F#	8eeL
.	8ff#J
4G	8eeL
.	8gg
4A	8ff#
.	8eeJ
=36	=36
8D'L	2.dd);
(8F#	.
8G	.
8AJ	.
4D);	.
*END	*END
*clefF4	*clefG2
*k[f#c#]	*k[f#c#]
*M4/4	*M4/4
=-	=-
8A	8r
8r	8a
=37	=37
8D	8r
8r	8f# 8dd
8AA	8r
8r	8e 8cc#
8D	8r
8r	8f# 8dd
8d	8r
8r	8a 8ff#
=38	=38
8A	8r
8r	8cc# 8ee
8AA	8r
8r	8b 8dd
8A	8r
8r	8cc# 8ee
8c#	8r
8r	8a 8aa
=39	=39
8d	8r
8r	8a 8gg
8D	8r
8r	8a 8ff#
8A	8r
8r	8cc# 8ee
8AA	8r
8r	8a 8aa
=40	=40
8A	8r
8r	8a 8gg
8C#	8r
8r	8ee 8gg
8D	8r
8r	8a 8gg
8DD	8r
8r	8a 8ff#
=41	=41
8GG	8r
8r	8dd 8ee
8G	8r
8r	8dd 8ee
8A	8r
8r	8cc# 8ee
8AA	8r
8r	8g 8cc#
=42	=42
8D	(2g 2cc#
8r	.
8AA	.
8r	.
4DD	4f#) 4dd
*END	*END
*clefF4	*clefG2
*k[f#c#]	*k[f#c#]
*M4/4	*M4/4
=-	=-
8r	4a
8G	.
=43	=43
8F#	8r
8r	8a 8dd
8C#	8r
8r	8a 8ee
8D	8r
8r	8a 8ff#
8E	8r
8r	8a 8gg
=44	=44
8F#	8r
8r	8dd 8aa
8G	8r
8r	8dd 8bb
8F#	8r
8r	8dd 8aa
8E	8r
8r	8dd 8gg
=45	=45
8D	8r
8r	8dd 8ff#
8F#	8r
8r	8dd 8ff#
8A	8r
8r	8dd 8ee
8AA	8r
8r	8cc# 8ee
=46	=46
8D	8r
8r	8a 8dd
8C#	8r
8r	8a 8ee
8D	8r
8r	8a 8ff#
8E	8r
8r	8a 8gg
=47	=47
8F#	8r
8r	8dd 8aa
8C#	8r
8r	8ee 8aa
8D	8r
8r	(8ff# 8aa
8DD	8eeL 8gg
8r	8ddJ) 8ff#
=48	=48
(4.AA	8dd 8ff#
.	(4cc# 4ee
8GG#)	8dd) 8ff#
4AA	4cc# 4ee
*END	*END
*clefF4	*clefG2
*k[f#c#]	*k[f#c#]
*M4/4	*M4/4
=-	=-
8A	8r
8r	8a
=49	=49
8D	8r
8r	8f# 8dd
8AA	8r
8r	8e 8cc#
8D	8r
8r	8f# 8dd
8d	8r
8r	8a 8ff#
=50	=50
8A	8r
8r	8cc# 8ee
8AA	8r
8r	8b 8dd
8A	8r
8r	8cc# 8ee
8c#	8r
8r	8a 8aa
=51	=51
8d	8r
8r	8a 8gg
8D	8r
8r	8a 8ff#
8G	8r
8r	8cc# 8ee
8AA	8r
8r	8a 8aa
=52	=52
8A	8r
8r	8a 8gg
8C#	8r
8r	8ee 8gg
8D	8r
8r	8a 8gg
8DD	8r
8r	8a 8ff#
=53	=53
8GG	8r
8r	8dd 8ee
8G	8r
8r	8dd 8ee
8A	8r
8r	8cc# 8ee
8AA	8r
8r	8g 8cc#
=54	=54
8D	(2g 2cc#
8r	.
8AA	.
8r	.
4DD;	4f#; 4dd);
*END	*END
*clefF4	*clefG2
*k[f#c#]	*k[f#c#]
*M4/4	*M4/4
=-	=-
4r	4a
=55	=55
4D 4d	(16ddLL
.	16a
.	16b
.	16cc#JJ
4r	16ddLL
.	16ee
.	16ff#
.	16ggJJ
(16dLL	4aa)
16c#	.
16B	.
16AJJ	.
16GLL	4r
16F#	.
16E	.
16DJJ	.
=56	=56
4C#)	(16aLL
.	16e
.	16f#
.	16gJJ
4r	16aLL
.	16b
.	16cc#
.	16ddJJ
(16ALL	4ee)
16G	.
16F#	.
16EJJ	.
16DLL	4r
16C#	.
16BB	.
16AAJJ	.
=57	=57
4D)	(16ff#LL
.	16a
.	16dd
.	16ff#JJ
4r	16aaLL
.	16ff#
.	16dd
.	16aJJ)
(16ALL	4a 4cc# 4ee
16AA	.
16C#	.
16EJJ	.
16ALL	4r
16E	.
16C#	.
16AAJJ	.
=58	=58
2C#)	(16ggLL
.	16a
.	16cc#
.	16eeJJ
.	16ggLL
.	16ee
.	16cc#
.	16aJJ)
(16dLL	4a 4dd 4ff#
16D	.
16F#	.
16AJJ	.
16dLL	4r
16A	.
16F#	.
16DJJ	.
=59	=59
4G)	(16eeLL
.	16b
.	16cc#
.	16ddJJ
4r	16eeLL
.	16ff#
.	16gg
.	16aaJJ
(16GLL	4bb)
16E	.
16F#	.
16GJJ	.
16ALL	8r
16G	.
16F#	8e 8a 8cc#
16EJJ	.
=60	=60
16DLL	4f# 4a 4dd
16d	.
16c#	.
16BJJ	.
16ALL	4r
16G	.
16F#	.
16EJJ	.
4D)	16r
.	(16dLL
..	16e
.	16f#JJ
*END	*END
*clefF4	*clefG2
*k[f#c#]	*k[f#c#]
*M4/4	*M4/4
=-	=-
4r	16gLL
.	16a
.	16b
.	16cc#JJ
=61	=61
(16DLL	8dd)
16A	.
16G#	8r
16AJJ	.
16C#LL	8ee
16A	.
16G	8r
16AJJ	.
16DLL	8ff#
16A	.
16G	8r
16AJJ	.
16ELL	8ggn
16A	.
16G	8r
16AJJ	.
=62	=62
16F#LL	(4.aa
16d	.
16c#	.
16dJJ	.
16GnLL	.
16d	.
16c#	8bb
16dJJ	.
16F#LL	4aa)
16d	.
16c#	.
16dJJ	.
16ELL	4gg
16d	.
16c#	.
16dJJ)	.
=63	=63
(16DLL	(4..ff#
16C#	.
16D	.
16EJJ	.
16F#LL	.
16E	.
16F#	.
16GJJ	32eeLLL
.	32ff#JJJ)
8AL)	4ee
8G	.
8F#	4r
8EJ	.
=64	=64
4D	(16ddLL
.	16a
.	16b
.	16cc#JJ
4r	16ddLL
.	16cc#
.	16dd
.	16eeJJ
4D	16ff#LL
.	16cc#
.	16dd
.	16eeJJ
4r	16ff#LL
.	16ee
.	16ff#
.	16ggJJ
=65	=65
(16F#LL	4.aa)
16d	.
16c#	.
16dJJ	.
16GLL	.
16d	.
16c#	8bb
16dJJ	.
16F#LL	(4aa
16d	.
16c#	.
16dJJ	.
16ELL	8ggL)
16d	.
16D	8ff#'J
16dJJ)	.
=66	=66
(16C#LL	4ee
16AA	.
16BB	.
16C#JJ	.
16DLL	4r
16E	.
16F#	.
16GJJ	.
4A)	16r
.	(16eLL
.	16a
.	16bJJ
*END	*END
*clefF4	*clefG2
*k[f#c#]	*k[f#c#]
*M4/4	*M4/4
=-	=-
4r	16cc#LL
.	16a
.	16b
.	16cc#JJ)
=67	=67
4D 4d	(16ddLL
.	16a
.	16b
.	16cc#JJ
4r	16ddLL
.	16ee
.	16ff#
.	16ggJJ
(16dLL	4aa)
16c#	.
16B	.
16AJJ	.
16GLL	4r
16F#	.
16E	.
16DJJ	.
=68	=68
4C#)	(16aLL
.	16e
.	16f#
.	16gJJ
4r	16aLL
.	16b
.	16cc#
.	16ddJJ
(16ALL	4ee)
16G	.
16F#	.
16EJJ	.
16DLL	4r
16C#	.
16BB	.
16AAJJ	.
=69	=69
4D)	(16ff#LL
.	16a
.	16dd
.	16ff#JJ
4r	16aaLL
.	16ff#
.	16dd
.	16aJJ)
(16ALL	4a 4cc# 4ee
16AA	.
16C#	.
16EJJ	.
16ALL	4r
16E	.
16C#	.
16AAJJ	.
=70	=70
2C#)	(16ggLL
.	16a
.	16cc#
.	16eeJJ
.	16ggLL
.	16ee
.	16cc#
.	16aJJ)
(16dLL	4a 4dd 4ff#
16D	.
16F#	.
16AJJ	.
16dLL	4r
16A	.
16F#	.
16DJJ	.
=71	=71
4G)	(16eeLL
.	16b
.	16cc#
.	16ddJJ
4r	16eeLL
.	16ff#
.	16gg
.	16aaJJ
(16GLL	4bb)
16E	.
16F#	.
16GJJ	.
16ALL	8r
16G	.
16F#	8e 8a 8cc#
16EJJ	.
=72	=72
16DLL	4f# 4a 4dd
16d	.
16c#	.
16BJJ	.
16ALL	4r
16G	.
16F#	.
16EJJ	.
4D);	4r
*END	*END
*clefF4	*clefG2
*k[f#c#]	*k[f#c#]
*M4/4	*M4/4
=-	=-
4r	4a
=73	=73
4D	8.f#L 8.dd
.	16eJk 16cc#
4r	8.f#L 8.dd
.	16gJk 16ee
4d	8.f#L 8.dd
.	16cc#Jk 16ee
4r	8.ddL 8.ff#
.	16f#Jk 16dd
=74	=74
4A	8.cc#L 8.ee
.	16bJk 16dd
4r	8.cc#L 8.ee
.	16ddJk 16ff#
4A	8.cc#L 8.ee
.	16ddJk 16ff#
4r	8.eeL 8.gg
.	16cc#Jk 16ee
=75	=75
4D	8.ddL 8.ff#
.	16eeJk 16gg
4r	8.ff#L 8.aa
.	16ddJk 16ff#
4A	8.cc#L 8.ee
.	16aJk 16cc#
4r	8.cc#L 8.aa
.	16eeJk 16gg
=76	=76
8.r	2ee 2gg
16AA	.
8.BBL	.
16C#Jk	.
8.r	2dd 2ff#
16D	.
8.EL	.
16F#Jk	.
=77	=77
*	*^
2G	8.eeL	2dd
.	16ff#Jk	.
.	8.ggL	.
.	16eeJk	.
2A	8.ff#L	4dd
.	16aaJk	.
.	8.cc#L	4g
.	16eeJk	.
=78	=78	=78
8.r	(4ee	4g
16d	.
8.AL	2dd)	2f#
16F#Jk	.
4D	.
*	*v	*v
*END	*END
*clefF4	*clefG2
*k[f#c#]	*k[f#c#]
*M4/4	*M4/4
=-	=-
4r	4a
=79	=79
4r	8.ddL
.	16cc#Jk
8.r	8.ddL
16AA	16eeJk
8.DL	8.ff#L
16C#k	16eek
8.D	8.ff#
16EJk	16ggJk
=80	=80
8.F#L	8.aaL
16E#k	16gg#k
8.F#	8.aa
16E#Jk	16gg#Jk
4F#	8.aaL
.	16bbJk
4E	8.ggL
.	16ggJk
=81	=81
8.DL	(4gg
16EJk	.
8.F#L	4ff#)
16GJk	.
8.AL	4ee
16AAJk	.
8.BBL	8r
.	16r
16C#Jk	16a
=82	=82
1D	8.ddL
.	16cc#Jk
.	8.ddL
.	16aJk 16ee
.	8.ddL 8.ff#
.	16cc#Jk 16ee
.	8.ddL 8.ff#
.	16eeJk 16gg
=83	=83
8.DL	(4..ff# 4..aa
16C#Jk	.
8.DL	.
16DJk	16gg) 16bb
(8DL	(4ff# 4aa
8F#	.
8G	8eeL 8gg
8G#J)	8ddJ) 8ff#
=84	=84
8.r	(4dd 4ff#
16A	.
8.EL	2cc#) 2ee
16C#Jk	.
4AA	.
*END	*END
*clefF4	*clefG2
*k[f#c#]	*k[f#c#]
*M4/4	*M4/4
=-	=-
4r	4a
=85	=85
4D	8.f#L 8.dd
.	16eJk 16cc#
4r	8.f#L 8.dd
.	16gJk 16ee
4d	8.f#L 8.dd
.	16cc#Jk 16ee
4r	8.ddL 8.ff#
.	16f#Jk 16dd
=86	=86
4A	8.cc#L 8.ee
.	16bJk 16dd
4r	8.cc#L 8.ee
.	16ddJk 16ff#
4A	8.cc#L 8.ee
.	16ddJk 16ff#
4r	8.eeL 8.gg
.	16cc#Jk 16ee
=87	=87
4D	8.ddL 8.ff#
.	16eeJk 16gg
4r	8.ff#L 8.aa
.	16ddJk 16ff#
4A	8.cc#L 8.ee
.	16aJk 16cc#
4r	8.cc#L 8.aa
.	16eeJk 16gg
=88	=88
8.r	2ee 2gg
16AA	.
8.BBL	.
16C#Jk	.
8.r	2dd 2ff#
16D	.
8.EL	.
16F#Jk	.
=89	=89
*	*^
2G	8.eeL	2dd
.	16ff#Jk	.
.	8.ggL	.
.	16eeJk	.
2A	8.ff#L	4dd
.	16aaJk	.
.	8.cc#L	4g
.	16eeJk	.
=90	=90	=90
8.r	(4ee	4g
16d	.
8.AL	2dd)	2f#
16F#Jk	.
4D	.
*	*v	*v
*END	*END
*clefG2	*clefG2
*k[f#c#]	*k[f#c#]
*M4/4	*M4/4
=-	=-
4r	4a
=91	=91
.	(16cc#q
.	16eeq
4r	1dd)
8dL 8f#	.
8eJ 8g	.
4f# 4a	.
4d 4f#	.
=92	=92
*clefF4	*
*	*^
.	(32ff#q	.
4r	8eeL	4r
.	8ddJ	.
8c#L	2ee)	8aL
8BJ	.	8g#J
4c#	.	2a
4A	(8aaL	.
.	8ggJ)	.
=93	=93	=93
4d	(4gg	(4a
4G#	4ff#)	4dd)
2A	(4ee	2cc#
.	4aa)	.
=94	=94	=94
8r	(4aa	8r
(8AA	.	(8cc#
8BBL	4gg)	8ddL
8C#J)	.	8eeJ)
8r	2ff#	2dd
(8D	.	.
8EL	.	.
8F#J)	.	.
=95	=95	=95
4.GG 4.G	4.ee	4.b 4.dd
8G#	8ee	8b 8dd
4A	(8.cc#L 8.ee	4gn
.	16ff#Jk	.
*	*v	*v
8r	32ggLLL
.	32ff#
.	32ee
.	32ddJJ
16r	32cc#LL
.	32b
32r	32aJJJ)
64r	64r
64AA	64c# 64e 64g
=96	=96
2D	(2c# 2e 2g
8DD	8d) 8f#
8r	8r
*END	*END
*clefF4	*clefG2
*k[f#c#]	*k[f#c#]
*M4/4	*M4/4
=-	=-
4r	4a
=97	=97
4r	4.dd
(16Eq	.
8DL)	.
8C#J	8ee
4D	4ff#
4E	4gg
=98	=98
*	*^
4.F#	4.aa	2.dd
8G	8bb	.
4F#	4aa	.
4C#	4gg	4ee
=99	=99	=99
(8DL	(4gg	2dd
8E	.	.
8F#	4ff#)	.
8GJ)	.	.
2A;	2ee;	2cc#;
*	*v	*v
=100	=100
*^	*
.	.	(32aq
.	.	32bq
.	.	32cc#q
.	.	32ddq
.	.	32eeq
.	.	32ff#q
.	.	32ggq
.	.	16aaq)
.	.	16gg'q
.	.	16ff#'q
.	.	16ee'q
8r	2r	8dd'L
(8A	.	(8cc#
8BL	.	8dd
8c#J)	.	8eeJ)
(16eq	.	(16ggq
(8dL)	[2A	(8ff#L)
8c#	.	8ee
8d	.	8ff#
8eJ)	.	8ggJ)
=101	=101	=101
(4.f#	1A]	(4.aa
8g)	.	8bb)
(8gL	.	(8bbL
8f#J	.	8aaJ
8eL	.	8ggL
8dJ)	.	8ff#J)
=102	=102	=102
(2d	2.A	(2ff#
4c#)	.	4ee)
*v	*v	*
*END	*END
*clefG2	*clefG2
*k[f#c#]	*k[f#c#]
*M4/4	*M4/4
=-	=-
4r	4a
=91	=91
.	(16cc#q
.	16eeq
4r	1dd)
8dL 8f#	.
8eJ 8g	.
4f# 4a	.
4d 4f#	.
=92	=92
*clefF4	*
*	*^
.	(32ff#q	.
4r	8eeL	4r
.	8ddJ	.
8c#L	2ee)	8aL
8BJ	.	8g#J
4c#	.	2a
4A	(8aaL	.
.	8ggJ)	.
=93	=93	=93
4d	(4gg	(4a
4G#	4ff#)	4dd)
2A	(4ee	2cc#
.	4aa)	.
=94	=94	=94
8r	(4aa	8r
(8AA	.	(8cc#
8BBL	4gg)	8ddL
8C#J)	.	8eeJ)
8r	2ff#	2dd
(8D	.	.
8EL	.	.
8F#J)	.	.
=95	=95	=95
4.GG 4.G	4.ee	4.b 4.dd
8G#	8ee	8b 8dd
4A	(8.cc#L 8.ee	4gn
.	16ff#Jk	.
*	*v	*v
8r	32ggLLL
.	32ff#
.	32ee
.	32ddJJ
16r	32cc#LL
.	32b
32r	32aJJJ)
64r	64r
64AA	64c# 64e 64g
=96	=96
2D	(2c# 2e 2g
8DD	8d) 8f#
8r	8r
*END	*END
*clefG2	*clefG2
*k[f#c#]	*k[f#c#]
*M4/4	*M4/4
=-	=-
4r	4a
=109	=109
8d	16r
.	(16f#LL
8r	16dd
.	16f#JJ)
8d	16r
.	(16gLL
8r	16ee
.	16gJJ)
8d	16r
.	(16f#LL
8r	16dd
.	16f#JJ)
8d	16r
.	(16ddLL
8r	16ff#
.	16ddJJ)
=110	=110
8A	16r
.	(16cc#LL
8r	16ee
.	16cc#JJ)
8a	16r
.	(16ddLL
8r	16ff#
.	16ddJJ)
8A	16r
.	(16cc#LL
8r	16ee
.	16cc#JJ)
8c#	16r
.	(16eeLL
8r	16aa
.	16eeJJ)
=111	=111
8d	16r
.	(16eeLL
8r	16gg
.	16eeJJ)
8f#	16r
.	(16ddLL
8r	16ff#
.	16ddJJ)
8a	16r
.	(16cc#LL
8r	16ee
.	16cc#JJ)
8A	16r
.	(16cc#LL
8r	16aa
.	16cc#JJ)
=112	=112
8B	16r
.	(16ddLL
8r	16gg
.	16ddJJ)
8c#	16r
.	(16eeLL
8r	16gg
.	16eeJJ)
8d	16r
.	(16ddLL
8r	16ff#
.	16ddJJ)
8f#	16r
.	(16ddLL
8r	16ff#
.	16ddJJ)
=113	=113
8g	16r
.	(16ddLL
8r	16ee
.	16ddJJ)
8e	16r
.	(16ddLL
8r	16gg
.	16ddJJ)
8a	16r
.	(16ddLL
8r	16ff#
.	16ddJJ)
8A	16r
.	(16cc#LL
8r	16ee
.	16cc#JJ)
=114	=114
*clefF4	*
16r	8f# 8dd
(16dLL	.
16c#	8r
16dJJ)	.
16r	8e 8cc#
(16ALL	.
16G#	8r
16AJJ)	.
8D	8f# 8dd
8r	8r
*END	*END
*clefG2	*clefG2
*k[f#c#]	*k[f#c#]
*M4/4	*M4/4
=-	=-
.	4a
=115	=115
8d	16r
.	(16ddLL
8r	16ee
.	16ddJJ)
8cc#	16r
.	(16eeLL
8r	16ff#
.	16eeJJ)
8dd	16r
.	(16ff#LL
8r	16gg
.	16ff#JJ)
8ee	16r
.	(16ggLL
8r	16aa
.	16ggJJ)
=116	=116
8ff#	16r
.	(16aaLL
8r	16bb
.	16aaJJ)
8gg	16r
.	(16bbLL
8r	16ccc#
.	16bbJJ)
8ff#	16r
.	(16aaLL
8r	16bb
.	16aaJJ)
8ee	16r
.	(16ggLL
8r	16aa
.	16ggJJ)
=117	=117
8dd	16r
.	(16ggLL
8r	16aa
.	16ggJJ)
8d	16r
.	(16ff#LL
8r	16gg
.	16ff#JJ)
4a	4ee
8g	16r
.	(16aLL
8r	16b
.	16aJJ)
=118	=118
8f#	16r
.	(16ddLL
8r	16ee
.	16ddJJ)
8a	16r
.	(16eeLL
8r	16ff#
.	16eeJJ)
8dd	16r
.	(16ff#LL
8r	16gg
.	16ff#JJ)
8ee	16r
.	(16ggLL
8r	16aa
.	16ggJJ)
=119	=119
8ff#	16r
.	(16aaLL
8r	16bb
.	16aaJJ)
8f#	16r
.	(16aaLL
8r	16bb
.	16aaJJ)
8g	16r
.	(16ggLL
8r	16aa
.	16ggJJ)
8g#	16r
.	(16ff#LL
8r	16gg
.	16ff#JJ)
=120	=120
(4g#	(4dd 4ff#
2a)	2cc#) 2.ee
*END	*END
*clefG2	*clefG2
*k[f#c#]	*k[f#c#]
*M4/4	*M4/4
=-	=-
4r	4a
=109	=109
8d	16r
.	(16f#LL
8r	16dd
.	16f#JJ)
8d	16r
.	(16gLL
8r	16ee
.	16gJJ)
8d	16r
.	(16f#LL
8r	16dd
.	16f#JJ)
8d	16r
.	(16ddLL
8r	16ff#
.	16ddJJ)
=110	=110
8A	16r
.	(16cc#LL
8r	16ee
.	16cc#JJ)
8a	16r
.	(16ddLL
8r	16ff#
.	16ddJJ)
8A	16r
.	(16cc#LL
8r	16ee
.	16cc#JJ)
8c#	16r
.	(16eeLL
8r	16aa
.	16eeJJ)
=111	=111
8d	16r
.	(16eeLL
8r	16gg
.	16eeJJ)
8f#	16r
.	(16ddLL
8r	16ff#
.	16ddJJ)
8a	16r
.	(16cc#LL
8r	16ee
.	16cc#JJ)
8A	16r
.	(16cc#LL
8r	16aa
.	16cc#JJ)
=112	=112
8B	16r
.	(16ddLL
8r	16gg
.	16ddJJ)
8c#	16r
.	(16eeLL
8r	16gg
.	16eeJJ)
8d	16r
.	(16ddLL
8r	16ff#
.	16ddJJ)
8f#	16r
.	(16ddLL
8r	16ff#
.	16ddJJ)
=113	=113
8g	16r
.	(16ddLL
8r	16ee
.	16ddJJ)
8e	16r
.	(16ddLL
8r	16gg
.	16ddJJ)
8a	16r
.	(16ddLL
8r	16ff#
.	16ddJJ)
8A	16r
.	(16cc#LL
8r	16ee
.	16cc#JJ)
=114	=114
*clefF4	*
16r	8f# 8dd
(16dLL	.
16c#	8r
16dJJ)	.
16r	8e 8cc#
(16ALL	.
16G#	8r
16AJJ)	.
8D	8f# 8dd
8r	8r
*END	*END
*clefF4	*clefG2
*k[f#c#]	*k[f#c#]
*M4/4	*M4/4
=-	=-
4r	4a
=127	=127
.	(32cc#q
16DLL	4dd)
16A	.
16F#	.
16AJJ	.
16DLL	(8.ddL
16A	.
16F#	.
16AJJ	16eeJk
16DLL	4dd)
16A	.
16F#	.
16AJJ	.
16DLL	4dd
16A	.
16F#	.
16AJJ	.
=128	=128
.	(32ff#q
16C#LL	(8eeL)
16A	.
16E	8ddJ
16AJJ	.
16C#LL	8.eeL
16A	.
16E	.
16AJJ	16ff#Jk
16C#LL	4ee)
16A	.
16E	.
16AJJ	.
16C#LL	(8aaL
16A	.
16E	8ggJ)
16AJJ	.
=129	=129
16DLL	4gg
16A	.
16F#	.
16AJJ	.
16DLL	4ff#
16A	.
16F#	.
16AJJ	.
.	16eeq
.	16ff#q
16AALL	4ee
16A	.
16E	.
16AJJ	.
16AALL	4aa
16A	.
16E	.
16AJJ	.
=130	=130
16C#LL	4aa
16A	.
16E	.
16AJJ	.
16C#LL	4gg
16A	.
16E	.
16AJJ	.
.	16ff#q
.	16ggq
16DLL	2ff#
16A	.
16F#	.
16AJJ	.
16DLL	.
16A	.
16F#	.
16AJJ	.
=131	=131
16GLL	(8ff#
16e	.
16B	8ee
16eJJ	.
16F#LL	4dd)
16d	.
16A	.
16dJJ	.
16GLL	(8eeL
16e	.
16B	8gg)
16eJJ	.
16ALL	(8ff#
16g	.
16e	8eeJ)
16gJJ	.
=132	=132
16DLL	2dd
16d	.
16c#	.
16dJJ	.
16ALL	.
16d	.
16F#	.
16AJJ	.
4D	4r
*END	*END
*clefF4	*clefG2
*k[f#c#]	*k[f#c#]
*M4/4	*M4/4
=-	=-
4r	4a
=133	=133
16DLL	(4.dd
16A	.
16F#	.
16AJJ	.
16DLL	.
16A	.
16C#	8ee
16AJJ	.
16DLL	4ff#)
16A	.
16F#	.
16AJJ	.
16ELL	4gg
16c#	.
16A	.
16c#JJ	.
=134	=134
16F#LL	(4.aa
16d	.
16A	.
16dJJ	.
16F#LL	.
16d	.
16A	8bb
16dJJ	.
16F#LL	4aa)
16d	.
16A	.
16dJJ	.
16C#LL	4gg
16A	.
16E	.
16AJJ	.
=135	=135
16DLL	4gg
16d	.
16c#	.
16dJJ	.
16ALL	4ff#
16d	.
16F#	.
16AJJ	.
.	16eeq
.	16ff#q
16C#LL	2ee
16A	.
16G#	.
16AJJ	.
16ELL	.
16A	.
16AA	.
16AJJ	.
=136	=136
.	(32eeq
16DLL	(8ddL)
16A	.
16E	8cc#J
16AJJ	.
16F#LL	8ddL
16A	.
16C#	8eeJ)
16AJJ	.
.	(32ggq
16DLL	(8ff#L)
16A	.
16C#	8eeJ
16AJJ	.
16DLL	8ff#L
16A	.
16E	8ggJ
16c#JJ	.
=137	=137
16F#LL	8aa)
16d	.
16A	8r
16dJJ	.
16GLL	8bb
16d	.
16B	8r
16dJJ	.
16F#LL	8aa
16d	.
16A	8r
16dJJ	.
16BBLL	8dd
16G#	.
16D	8r
16G#JJ	.
=138	=138
16AALL	4dd#
16A	.
16G#	.
16AJJ	.
16ELL	2ee
16A	.
16C#	.
16EJJ	.
4AA	.
*END	*END
*clefF4	*clefG2
*k[f#c#]	*k[f#c#]
*M4/4	*M4/4
=-	=-
4r	4a
=127	=127
.	(32cc#q
16DLL	4dd)
16A	.
16F#	.
16AJJ	.
16DLL	(8.ddL
16A	.
16F#	.
16AJJ	16eeJk
16DLL	4dd)
16A	.
16F#	.
16AJJ	.
16DLL	4dd
16A	.
16F#	.
16AJJ	.
=128	=128
.	(32ff#q
16C#LL	(8eeL)
16A	.
16E	8ddJ
16AJJ	.
16C#LL	8.eeL
16A	.
16E	.
16AJJ	16ff#Jk
16C#LL	4ee)
16A	.
16E	.
16AJJ	.
16C#LL	(8aaL
16A	.
16E	8ggJ)
16AJJ	.
=129	=129
16DLL	4gg
16A	.
16F#	.
16AJJ	.
16DLL	4ff#
16A	.
16F#	.
16AJJ	.
.	16eeq
.	16ff#q
16AALL	4ee
16A	.
16E	.
16AJJ	.
16AALL	4aa
16A	.
16E	.
16AJJ	.
=130	=130
16C#LL	4aa
16A	.
16E	.
16AJJ	.
16C#LL	4gg
16A	.
16E	.
16AJJ	.
.	16ff#q
.	16ggq
16DLL	2ff#
16A	.
16F#	.
16AJJ	.
16DLL	.
16A	.
16F#	.
16AJJ	.
=131	=131
16GLL	(8ff#
16e	.
16B	8ee
16eJJ	.
16F#LL	4dd)
16d	.
16A	.
16dJJ	.
16GLL	(8eeL
16e	.
16B	8gg)
16eJJ	.
16ALL	(8ff#
16g	.
16e	8eeJ)
16gJJ	.
=132	=132
16DLL	2dd
16d	.
16c#	.
16dJJ	.
16ALL	.
16d	.
16F#	.
16AJJ	.
4D	4r
4r	4r
==	==
*-	*-
